src/assets/logo-nlw-expert.svg

<svg width="125" height="24" viewBox="0 0 125 24" fill="none" xmlns="http://www.w3.org/2000/svg">
<path fill-rule="evenodd" clip-rule="evenodd" d="M79.5658 17.4389C73.9964 13.3403 73.1271 13.6675 62.1269 24C72.4594 12.9999 72.7866 12.1339 68.688 6.56108C74.2575 10.6597 75.1268 10.3325 86.1269 0C75.7945 11.0001 75.4672 11.8661 79.5658 17.4389ZM121.269 17.3762C120.655 17.3762 120.182 17.2076 119.851 16.8705C119.521 16.5333 119.356 16.0706 119.356 15.4855V8.14439H116.123V6.62724L119.356 6.62724V2.80298L121.091 2.80298V6.62724L124.608 6.62724V8.14439H121.091V15.2244C121.091 15.664 121.302 15.8855 121.729 15.8855H124.125V17.3795L121.266 17.3795L121.269 17.3762ZM20.6021 4.04579L20.6021 16.2887H22.8662L22.8662 4.04579H20.6021ZM44.1162 16.0407V13.6906L47.4446 12.428L44.1162 11.1654V8.81529L50.6012 11.2315H50.6177V13.6477H50.6012L44.1162 16.0506V16.044V16.0407ZM41.3298 5.49013L37.5154 17.7331H39.7796L43.5939 5.49013L41.3298 5.49013ZM6.50489 11.1555V8.80543L0.0132216 11.2183H0L0 13.6312H0.0132216L6.50489 16.0474L6.50489 13.694L3.17642 12.4248L6.50489 11.1588V11.1555ZM18.2125 11.0728C18.2489 10.1176 17.9117 9.1822 17.2672 8.47486L17.2705 8.47816C16.6227 7.80387 15.7203 7.43698 14.7849 7.47664C13.7834 7.43367 12.8116 7.80388 12.0911 8.50461V7.73116H9.8269V16.292L12.0911 16.292V12.5007C12.0911 10.5308 12.7984 9.54909 14.2164 9.54909C14.699 9.52926 15.1617 9.73088 15.4757 10.0978C15.8062 10.5076 15.9748 11.0299 15.9484 11.5554V16.2887H18.2125V11.0728ZM33.0404 16.2886L34.9244 16.2886L38.1008 7.71132L35.6813 7.71132L33.8997 12.8577L32.062 7.71132L30.2969 7.71132L28.4592 12.8412L26.6776 7.71132L24.2581 7.71132L27.4312 16.2886H29.3186L31.1894 11.248L33.0404 16.2886ZM61.3637 17.6836C60.2795 17.6836 59.3276 17.4522 58.5046 16.9895C57.6848 16.5267 57.0469 15.8789 56.5908 15.0426C56.1379 14.2064 55.9099 13.2412 55.9099 12.1405V11.8761C55.9099 10.7622 56.1379 9.78715 56.5908 8.9509C57.0436 8.11465 57.6749 7.4668 58.4814 7.00406C59.2879 6.54131 60.2101 6.30993 61.2513 6.30993C62.2925 6.30993 63.1552 6.52479 63.9319 6.95779C64.7087 7.39078 65.3168 8.00888 65.7564 8.81538C66.1961 9.62188 66.4175 10.5672 66.4175 11.6513V12.4413L57.6452 12.4413C57.6881 13.5982 58.0616 14.5038 58.7657 15.155C59.4697 15.8061 60.3489 16.1334 61.4033 16.1334C62.3255 16.1334 63.0362 15.9218 63.5353 15.4954C64.0344 15.0691 64.4145 14.5633 64.6789 13.9783L66.1729 14.7022C65.9515 15.155 65.6474 15.6111 65.2606 16.064C64.8706 16.5168 64.3682 16.9002 63.7435 17.2076C63.1188 17.515 62.3255 17.6703 61.3571 17.6703L61.3637 17.6836ZM57.6716 11.0233L64.6624 11.0233C64.6029 10.0284 64.2624 9.25168 63.641 8.69308C63.0163 8.13779 62.223 7.85683 61.2546 7.85683C60.2861 7.85683 59.4664 8.13448 58.8351 8.69308C58.2038 9.25168 57.817 10.0284 57.6683 11.0233H57.6716ZM82.6003 6.62735V21.7724L82.6036 21.7757H84.3389V15.6872H84.6463C84.8215 16.0112 85.0694 16.3252 85.3933 16.6326C85.7172 16.94 86.137 17.1912 86.6592 17.3895C87.1782 17.5878 87.8128 17.687 88.5598 17.687C89.4985 17.687 90.3546 17.4655 91.1214 17.0259C91.8883 16.5863 92.5031 15.9484 92.9559 15.1121C93.4087 14.2759 93.6368 13.2876 93.6368 12.1439V11.8597C93.6368 10.7028 93.4054 9.71121 92.9427 8.89149C92.4799 8.07177 91.8651 7.43714 91.095 6.99093C90.3248 6.54471 89.4787 6.31994 88.5565 6.31994C87.4426 6.31994 86.5733 6.53149 85.9519 6.95788C85.3272 7.38427 84.8777 7.86684 84.6 8.40891H84.2926V6.62735H82.6003ZM90.8107 15.0758C90.1166 15.7897 89.211 16.1434 88.0971 16.1434C86.9997 16.1434 86.094 15.7864 85.3834 15.0758C84.6727 14.3651 84.3158 13.3735 84.3158 12.0977V11.8993C84.3158 10.6235 84.6727 9.63188 85.3834 8.92124C86.094 8.21059 86.9832 7.85362 88.0971 7.85362C89.211 7.85362 90.1133 8.21059 90.8107 8.92124C91.5082 9.63188 91.8552 10.6235 91.8552 11.8993V12.0977C91.8552 13.3735 91.5049 14.3651 90.8107 15.0758ZM101.173 17.6836C100.089 17.6836 99.1371 17.4522 98.3141 16.9895C97.4944 16.5267 96.8565 15.8789 96.4003 15.0426C95.9475 14.2064 95.7194 13.2412 95.7194 12.1405V11.8761C95.7194 10.7622 95.9475 9.78715 96.4003 8.9509C96.8532 8.11465 97.4845 7.4668 98.291 7.00406C99.0975 6.54131 100.02 6.30993 101.061 6.30993C102.102 6.30993 102.965 6.52479 103.741 6.95779C104.518 7.39078 105.126 8.00888 105.566 8.81538C106.006 9.62188 106.227 10.5672 106.227 11.6513V12.4413L97.4547 12.4413C97.4977 13.5982 97.8712 14.5038 98.5752 15.155C99.2793 15.8061 100.158 16.1334 101.213 16.1334C102.135 16.1334 102.846 15.9218 103.345 15.4954C103.844 15.0691 104.224 14.5633 104.488 13.9783L105.982 14.7022C105.761 15.155 105.457 15.6111 105.07 16.064C104.68 16.5168 104.178 16.9002 103.553 17.2076C102.928 17.515 102.135 17.6703 101.167 17.6703L101.173 17.6836ZM97.4812 11.0233H104.472C104.412 10.0284 104.072 9.25168 103.451 8.69308C102.826 8.13779 102.033 7.85683 101.064 7.85683C100.096 7.85683 99.276 8.13448 98.6447 8.69308C98.0133 9.25168 97.6266 10.0284 97.4779 11.0233H97.4812ZM108.785 6.62733V17.3763H110.52V10.8251C110.52 9.91613 110.758 9.24515 111.234 8.81215C111.71 8.37915 112.338 8.16431 113.115 8.16431H114.5V6.58105H113.224C112.58 6.58105 112.061 6.69013 111.664 6.91159C111.267 7.13304 110.977 7.4768 110.785 7.94615H110.477V6.62733H108.785Z" fill="#334155"/>
</svg>

<svg
    xmlns="http://www.w3.org/2000/svg"
    width="125"
    height="24"
    fill="none"
    viewBox="0 0 125 24"
>
    <path
        fill="#334155"
        fillRule="evenodd"
        d="M79.566 17.439c-5.57-4.099-6.439-3.771-17.44 6.561 10.333-11 10.66-11.866 6.562-17.439 5.57 4.099 6.439 3.771 17.439-6.561-10.332 11-10.66 11.866-6.561 17.439zm41.703-.063c-.614 0-1.087-.168-1.418-.506-.33-.337-.495-.8-.495-1.385v-7.34h-3.233V6.626h3.233V2.803h1.735v3.824h3.517v1.517h-3.517v7.08c0 .44.211.662.638.662h2.396v1.494h-2.859l.003-.004zM20.602 4.046v12.243h2.264V4.046h-2.264zM44.116 16.04v-2.35l3.329-1.263-3.329-1.263v-2.35l6.485 2.417h.017v2.416H50.6l-6.485 2.403v-.01zM41.33 5.49l-3.815 12.242h2.265L43.594 5.49H41.33zM6.505 11.155v-2.35L.013 11.217H0v2.413h.013l6.492 2.416v-2.353l-3.329-1.27 3.329-1.265v-.004zm11.707-.083c.037-.955-.3-1.89-.945-2.598l.003.003a3.254 3.254 0 00-2.485-1.001 3.635 3.635 0 00-2.694 1.028V7.73H9.827v8.561h2.264v-3.791c0-1.97.707-2.952 2.125-2.952a1.57 1.57 0 011.26.549c.33.41.499.932.472 1.457v4.734h2.264v-5.216zm14.828 5.216h1.884l3.177-8.578h-2.42L33.9 12.858 32.062 7.71h-1.765l-1.838 5.13-1.781-5.13h-2.42l3.173 8.578h1.888l1.87-5.041 1.851 5.04zm28.324 1.395c-1.084 0-2.036-.232-2.86-.695a4.864 4.864 0 01-1.913-1.946c-.453-.837-.681-1.802-.681-2.902v-.265c0-1.114.228-2.089.68-2.925a4.873 4.873 0 011.891-1.947c.807-.463 1.73-.694 2.77-.694 1.041 0 1.904.215 2.68.648a4.593 4.593 0 011.825 1.857c.44.807.662 1.752.662 2.836v.79h-8.773c.043 1.157.417 2.063 1.12 2.714.705.651 1.584.978 2.638.978.922 0 1.633-.211 2.132-.638.5-.426.88-.932 1.144-1.517l1.494.724a6.534 6.534 0 01-.912 1.362c-.39.453-.893.836-1.517 1.144-.625.307-1.419.462-2.387.462l.007.014zm-3.692-6.66h6.99c-.06-.996-.4-1.772-1.021-2.33-.625-.556-1.418-.837-2.386-.837-.969 0-1.789.277-2.42.836-.631.559-1.018 1.335-1.167 2.33h.004zM82.6 6.626v15.145l.004.004h1.735v-6.089h.307c.175.324.423.638.747.946.324.307.744.558 1.266.757.52.198 1.154.297 1.9.297.94 0 1.796-.222 2.562-.661.767-.44 1.382-1.078 1.835-1.914.453-.836.68-1.824.68-2.968v-.284c0-1.157-.23-2.149-.693-2.969-.463-.82-1.078-1.454-1.848-1.9a4.975 4.975 0 00-2.538-.671c-1.114 0-1.984.211-2.605.638-.625.426-1.074.909-1.352 1.45h-.307v-1.78H82.6zm8.21 8.449c-.693.714-1.599 1.067-2.713 1.067-1.097 0-2.003-.357-2.714-1.067-.71-.71-1.067-1.703-1.067-2.978v-.199c0-1.275.357-2.267 1.067-2.978.711-.71 1.6-1.067 2.714-1.067 1.114 0 2.016.357 2.714 1.067.697.71 1.044 1.703 1.044 2.978v.199c0 1.275-.35 2.267-1.044 2.978zm10.363 2.608c-1.084 0-2.036-.232-2.859-.695a4.866 4.866 0 01-1.914-1.946c-.453-.837-.68-1.802-.68-2.902v-.265c0-1.114.228-2.089.68-2.925a4.873 4.873 0 011.891-1.947c.806-.463 1.729-.694 2.77-.694s1.904.215 2.68.648a4.595 4.595 0 011.825 1.857c.44.807.661 1.752.661 2.836v.79h-8.772c.043 1.157.416 2.063 1.12 2.714.704.651 1.583.978 2.638.978.922 0 1.633-.211 2.132-.638a4.3 4.3 0 001.143-1.517l1.494.724a6.509 6.509 0 01-.912 1.362c-.39.453-.892.836-1.517 1.144-.625.307-1.418.462-2.386.462l.006.014zm-3.692-6.66h6.991c-.06-.996-.4-1.772-1.021-2.33-.625-.556-1.418-.837-2.387-.837-.968 0-1.788.277-2.42.836-.63.559-1.017 1.335-1.166 2.33h.003zm11.304-4.397v10.75h1.735v-6.552c0-.909.238-1.58.714-2.013.476-.433 1.104-.648 1.881-.648h1.385V6.581h-1.276c-.644 0-1.163.11-1.56.33-.397.222-.687.566-.879 1.035h-.308V6.627h-1.692z"
        clipRule="evenodd"
    />
</svg>
